icon-themes/breeze_svg/cmd/sc_hidenote.svg

<svg viewBox="0 0 16 16" xmlns="http://www.w3.org/2000/svg"><path d="m2 2v1 8l.4394531.439453 1.4433594-1.439453h-.8828125v-6-1h7.894531l1.001953-1zm11.3125 0-11.3144531 11.294922.7148437.705078 11.2851564-11.3027344zm.6875 2.1113281-1 1.0019531v2.8867188 2h-4.8789062l-.9980469 1h.8769531 6v-1-2z" fill="#4d4d4d"/></svg>

<svg viewBox="0 0 16 16" xmlns="http://www.w3.org/2000/svg">
  <path
     style="fill:#4d4d4d"
     d="m 2,2 v 1 8 L 2.4394531,11.439453 3.8828125,10 H 3 V 4 3 h 7.894531 L 11.896484,2 Z M 13.3125,2 1.9980469,13.294922 2.7128906,14 13.998047,2.6972656 Z M 14,4.1113281 13,5.1132812 V 8 10 H 8.1210938 L 7.1230469,11 H 8 14 V 10 8 Z"
     />
</svg>
